X: 01063
T: KEVIN'S CAMP
C: Bob McQuillen Aug'74
B: Bob's Note Book 1 #63
%R: reel
Z: 2019 John Chambers <jc:trillian.mit.edu>
M: C
L: 1/8
K: Em
   e | Beef  gabg | abag fefd | Beef  gabg | bagf ge e :|
|: B | B2e2  d2Bd | edBA B2BB | B2e2  d2B2 | BAGF GE E :|
|: E | B,EEF GABG | ABAG FEFD | B,EEF GABG | BAGF GE E :|
|: B | B2e2  d2Bd | edBA B2BB | B2e2  d2B2 | BAGF GE E :|
%%begintext align
%% For Kevin Pattie, with
%% such happy memories of
%% Summertime '74.
%%endtext

%%sep 1 1 500

%%sep 1 1 500

